X:1
T:Title
%%score { ( 1 4 ) | ( 2 3 ) }
L:1/8
M:2/4
K:Ab
V:1 treble nm="Grand Piano"
V:4 treble 
V:2 bass 
V:3 bass 
V:1
 z2 z[Q:1/4=66] [CE]/[CE]/ | [CE][CE]/[CE]/ [DE][DE]/[DE]/ | E e2 [Fd]/[Fd]/ |[M:1/4] [Ec]B/A/ | %4
 GA/B/ |[M:3/8] [CA]3 |[M:1/8] [CE]/[CE]/ |[M:2/4] [CE][CE]/[CE]/ [DE][DE]/[DE]/ | %8
 E e2 [Fd]/[Fd]/ |[M:1/4] [Ec]B/A/ | GA/B/ |[M:3/8] [CA]3 |[M:1/8] [EG]/[FA]/ | %13
[M:2/4] [GB][GB]/[Ac]/ [GB][GB]/[Ac]/ | [GB]3 [EG]/[FA]/ | [GB][FA]/[EG]/ [=DF][EG]/[FA]/ | %16
 [B,EG][B,F] [B,E][B,EG]/[B,FA]/ | [EGB][EGB]/[EGc]/ [DAB][DAB]/[DAc]/ | [EB]3 [CFB]/[CFA]/ | %19
 [EG][B,FA]/[B,EG]/ [A,DF][A,EG]/[A,DF]/ |[M:3/8] [G,E]E/E/E |[M:2/4] B4 | A4 |[M:1/4] GG/A/ | %24
 FF/G/ |[M:2/4] C3 c/e/ | B4 | A4 | Gd/d/ cB/B/ |[M:3/8] [CA]3 |] %30
V:2
 z2 z [A,,E,]/[A,,D,]/ | [A,,A,][A,,A,]/[A,,A,]/ [B,,G,][B,,G,]/[B,,G,]/ | z E2 [D,A,]/[D,A,]/ | %3
[M:1/4] [D,A,][E,DE]/[E,CE]/ | [E,B,D][E,A,C]/[E,G,D]/ |[M:3/8] [A,,A,]3 | %6
[M:1/8] [A,,E,]/[A,,D,]/ |[M:2/4] [A,,A,][A,,A,]/[A,,A,]/ [B,,G,][B,,G,]/[B,,G,]/ | %8
 z E2 [D,A,]/[D,A,]/ |[M:1/4] [D,A,][E,DE]/[E,CE]/ | [E,B,D][E,A,C]/[E,G,D]/ |[M:3/8] [A,,A,]3 | %12
[M:1/8] [E,B,]/[E,B,]/ |[M:2/4] [E,E][E,E]/[E,E]/ [E,E][E,E]/[E,E]/ | [E,E]3 [E,B,]/[E,B,]/ | %15
 [B,,B,][B,,B,]/[B,,B,]/ [B,,B,][B,,B,]/[B,,B,]/ | z A, G,E,/E,/ | E,E,/E,/ F,F,/F,/ | %18
 z[K:treble] e2 A,/[K:bass]A,/ | B,B,,/B,,/ B,,B,,/B,,/ |[M:3/8] E,3 | %21
[M:2/4] D[E,D]/[E,D]/ [E,D][K:treble]c/e/ | E[A,C]/[A,C]/[K:bass] [A,C][A,CE]/[A,CE]/ | %23
[M:1/4] [E,B,D][E,B,D]/[E,B,E]/ | [E,G,D][E,G,D]/[E,G,D]/ |[M:2/4] z E/E/ E2 | %26
 D[E,D]/[E,D]/ [E,D][K:treble]c/e/ | E[A,C]/[A,C]/[K:bass] [A,C][A,CE]/[A,CE]/ | %28
 [E,DE][E,B,E]/[E,B,E]/ [E,A,E][E,G,D]/[E,G,D]/ |[M:3/8] [A,,E,]3 |] %30
V:3
 x4 | x4 | [C,A,]4 |[M:1/4] x2 | x2 |[M:3/8] x3 |[M:1/8] x |[M:2/4] x4 | [C,A,]4 |[M:1/4] x2 | x2 | %11
[M:3/8] x3 |[M:1/8] x |[M:2/4] x4 | x4 | x4 | E,4 | x4 | G,4[K:treble][K:bass] | x4 |[M:3/8] x3 | %21
[M:2/4] x3[K:treble] x | x2[K:bass] x2 |[M:1/4] x2 | x2 |[M:2/4] A,,4 | x3[K:treble] x | %27
 x2[K:bass] x2 | x4 |[M:3/8] x3 |] %30
V:4
 x4 | x4 | x4 |[M:1/4] x2 | x2 |[M:3/8] x3 |[M:1/8] x |[M:2/4] x4 | x4 |[M:1/4] x2 | x2 | %11
[M:3/8] x3 |[M:1/8] x |[M:2/4] x4 | x4 | x4 | x4 | x4 | x4 | x4 |[M:3/8] x3 |[M:2/4] z E/E/ E2 | %22
 z E/E/ EA/B/ |[M:1/4] x2 | x2 |[M:2/4] .[A,E]2 z2 | z E/E/ E2 | z E/E/ EA/B/ | x4 |[M:3/8] x3 |] %30

